X: 04081
T: RENATA'S REEL
C: Bob McQuillen 23 Sept 79
B: Bob's Note Book 04 #81
R: reel
Z: 2020 John Chambers <jc:trillian.mit.edu>
M: C
L: 1/8
K: Em
ge \
| B2e2 egag | fad2 d2GA | B2ED EGAG | FAd2 d2Bd |
| e2de dBGB | AGAB A2ed | B2dB AGED | B,2E2 E2 :|
|: GA \
| B2eg edBG | ABAF D2GA | B2eg edBc | decB A2GA |
| Bdde dBGB | ABAF D2EF | GABe dBAB | G2E2 E2 :|
%%begintext align
%% I was so happy to meet Renata Pompelli
%% this summer - no wonder there's a Pompelli
%% trail on Mt. Monadnock! With Best
%% wishes and love to you, Renata.
%%endtext

%%sep 1 1 500

%%sep 1 1 500

